X:1
T:Non fuggir
T:Non fuggir
T:Magno Petreo
T:Source : Madrigaletti a 3 voci---Libro I---Copenhagen---H.Waldkirch---1616. Editor : André Vierendeels (17/04/14).
T:Notes : Original clefs : C1, C1, C4 Editorial accidentals above the staff
C:Magno Petreo
%%score [ 1 2 3 ]
L:1/8
Q:1/4=96
M:2/2
K:F
V:1 treble nm="Soprano 1" snm="S 1"
V:2 treble nm="Soprano 2" snm="S 2"
V:3 treble-8 nm="Tenor" snm="T"
V:1
 G3 A B2 Bc | d4 D3 E | F2 FG A4 | z AGF E2 E2 | z cBA G2 G2 | z _edc B2 B2 | z4 z dcB | A2 G2 A4 | %8
w: Non fug- gir, non fug-|gir, non fug-|fir, non fug- gir,|deh non fug- gi- re,|deh non fug- gi- re,|deh non fug- gi- re,|deh non fug-|gi- * *|
 G4 B2 BB | B6 c2 | d8 | d4 d4 | c3 c c2 G2 | A4 A2 ^F2 | G3 B A2 G2 | G4 ^F4 | G8 :: z4 A3 B | %18
w: re, che te ne|port' il|co-|re del|tuo fe- del pa-|sto- re, del|tuo fe- del pa-|sto- *|re?|Deh _|
 c4 AA A2- | A2 F2 E4 | D2 F2 E4 | D2 d2 d2 ^c2 | d2 G2 G2 ^F2 | G2 G2 d2 dc | B2 ^F2 G2 D2 | %25
w: _ fer- ma- ti|_ per vi-|a, ch'un ba-|cio, ch'un ba- *|cio, ch'un ba- *|cio sol la mia ven-|det- ta fi- a,|
 z2 G2 d2 dc | B2 G2 A2 D2 | z2 G2 G2 ^F2 | G2 A2 d2 dc | B2 ^F2 G2 D2 | z4 z2 G2 | G2 ^F2 G2 D2 | %32
w: ch'un ba- cio, ch'un|ba- * * cio,|ch'un ba- *|cio, sol la- mia ven-|det- ta fi- a,|ch'un|ba- * cio, ch'un|
 D2 ^C2 D2 d2 | d2 ^c2 d4 | z2 G2 A2 AG | F2 F2 E4 | D4 z2 A2 | d2 dc B4 | A4 GA Bc | %39
w: ba- * cio, ch'un|ba- * cio,|sol la mia ven-|det- ta fi-|a, sol|la mia ven- det-|ta fi- * * *|
 d3 c B3 A/G/ |"^-natural" ^F2 G4 F2 | G8 :| %42
w: ||a.|
V:2
 z4 G3 A | B2 Bc d4 | D3 E F2 FG | A4 z AGF | E2 E2 z cBA | G2 G2 z _edc | B2 B2 z BAG | %7
w: Non fug-|gir, non fug- gir,|non fug- gir, non fug-|gir, deh- non fug-|gi- re, deh non fug-|fi- re, deh non fug-|gi- re, deh non fug-|
 ^F2 G4 F2 | G8 | D2 DD D4- | D2 E2 F4- | F4 F2 B2 | A3 G A2 G2 | ^F4 F2 A2 | c3 d _e2 d2 | c8- | %16
w: gi- * *|re,|che te ne port'|_ il co-|* re del|tuo fe- del pa-|sto- re, del|tuo fe- del pa-|sto-|
 c4 =B4 :: z4 c4 | AA A4 G2 | E2 D4 ^C2 | D4 z4 | z2 F2 E4 | D2 d2 c4 | =B4 z4 | z4 z2 A2 | %25
w: * re?|Deh|fer- ma- ti per|vi- * *|a,|ch'un ba-|cio, ch'un ba-|cio,|sol|
 d2 dc B2 ^F2 | G2 DB A4 | G4 z2 A2 | d2 dc B2 ^F2 | G2 D2 z2 G2 | G2 ^F2 G2 B2 | A4 D2 E2 | %32
w: la mia ven- det- ta|fi- a, ch'un ba-|cio, sol|la mia ven- det- ta|fi- a, ch'un|ba- * cio, ch'un|ba- cio, sol|
 A2 AG F2 F2 | E4 D3 d | e2 ^c2 d4 | z2 D2 A2 AG | F2 F2 E4 | D4 z4 | z2 A2 d2 dc | B2 A2 G3 A | %40
w: la mia ven- det- ta|fi- a, ch'un|ba- * cio,|sol la mia ven-|det- ta fi-|a,|sol la mia ven-|det- ta fi- *|
 B2 c2 A4 | G8 :| %42
w: |a.|
V:3
 z8 | G3 A B2 Bc | d4 D3 E | F2 FG A4 | z AGF E2 E2 | z cBA G2 G2 | z _edc B3 c | d4 D4 | %8
w: |Non fug- gir, non fug-|gir, non fug-|gir, non fug- gir,|deh non fug- gi- re,|deh non fug- gi- re,|deh non fug- gi- *||
 G4 G2 GG | G6 A2 | B8 | B4 B4 | F3 E F2 _E2 | D4 D2 d2 | c3 B c2 B2 | A8 | G8 :: F8 | FF F4 G2 | %19
w: re, che te ne|port' il|co-|re del|tuo fe- del pa-|sto- re, del|tuo fe- del pa-|sto-|re?|Deh|fer- ma- ti per|
 A8 | D2 d2 d2 ^c2 | d4 z4 | z2 B2 A4 | G4 z2 G2 | d2 dc B2 ^F2 | G4 D4 | z2 G2 G2 ^F2 | %27
w: vi-|a, ch'un ba- *|cio,|ch'un ba-|cio, sol|la mia ven- det- ta|fi- a,|ch'un ba- *|
 G2 G2 d2 dc | B2 ^F2 G2 D2 | z4 z2 B2 | A4 G2 G2 | d2 dc B2 B2 | A4 D2 D2 | A2 AG F2 F2 | E4 D4 | %35
w: ci, sol la mia ven-|det- ta fi- a,|ch'un|ba- cio, sol|la mia ven- det- ta|fi- a, ch'un|la mia ven- det- ta|fi- a,|
 z2 d2 d2 ^c2 | d2 D2 A2 AG |"^#" ^F2 F2 z2 G2 | d2 dc B2 A2 | G3 A BA GF/E/ | D2 C2 D4 | G8 :| %42
w: ch'un ba- *|cio, sol la mia ven-|de- ta, sol|la mia ven- det- ta|fi- * * * * * *||a.|

